brandFactory_export/2.Regular/Status grafica _2Regular.svg

<?xml version="1.0" encoding="UTF-8"?>
<svg width="24px" height="24px" viewBox="0 0 24 24" version="1.1" xmlns="http://www.w3.org/2000/svg" xmlns:xlink="http://www.w3.org/1999/xlink">
    <title>2.Regular/Status grafica _2Regular</title>
    <g id="Symbols" stroke="none" stroke-width="1" fill="none" fill-rule="evenodd">
        <g id="2.Regular/Status-grafica-_2Regular" fill="#5CB615" fill-rule="nonzero">
            <path d="M21.3310924,6.1697479 C20.8773109,6.1697479 20.507563,5.80336134 20.507563,5.34957983 C20.507563,4.89579832 20.8739496,4.52605042 21.3277311,4.52605042 C21.7815126,4.52605042 22.1512605,4.89243697 22.1512605,5.34621849 C22.1512605,5.80336134 21.7848739,6.1697479 21.3310924,6.1697479 M7.1697479,10.7680672 C6.71596639,10.7512605 6.36302521,10.3714286 6.37647059,9.91764706 C6.38991597,9.48739496 6.73613445,9.14117647 7.1697479,9.12436975 C7.62352941,9.10756303 8.00336134,9.46386555 8.02016807,9.91764706 C8.03697479,10.3714286 7.68067227,10.7512605 7.22689076,10.7680672 C7.21008403,10.7714286 7.18991597,10.7714286 7.1697479,10.7680672 M21.3310924,3.02689076 C20.0470588,3.02689076 19.005042,4.06554622 19.0016807,5.34957983 C19.0016807,5.91092437 19.210084,6.41848739 19.5428571,6.81848739 L16.6756303,11.6184874 C16.497479,11.5747899 16.3193277,11.5512605 16.1378151,11.5512605 C15.4621849,11.5512605 14.8571429,11.8436975 14.4302521,12.307563 L9.4789916,10.1394958 C9.48571429,10.0756303 9.49915966,10.0151261 9.49915966,9.94789916 C9.49915966,8.66722689 8.45714286,7.62521008 7.17310924,7.62521008 C5.88907563,7.62521008 4.84705882,8.66386555 4.84369748,9.94789916 C4.84369748,10.5226891 5.06890756,11.0605042 5.43865546,11.4773109 L2.78991597,16.1462185 C2.6487395,16.1193277 2.50420168,16.102521 2.35966387,16.102521 C1.07563025,16.102521 0.0336134454,17.1411765 0.0302521008,18.4252101 C0.0336134454,19.7058824 1.07563025,20.7478992 2.36302521,20.7478992 C3.64705882,20.7478992 4.68907563,19.7092437 4.69243697,18.4252101 C4.69243697,17.8336134 4.46386555,17.302521 4.09747899,16.892437 L6.74957983,12.2168067 C6.8907563,12.2436975 7.02857143,12.2705882 7.17310924,12.2705882 C7.8487395,12.2705882 8.45378151,11.9781513 8.88067227,11.5142857 L13.8319328,13.6823529 C13.8285714,13.7462185 13.8117647,13.8067227 13.8117647,13.8739496 C13.8117647,15.1579832 14.8537815,16.2033613 16.1378151,16.2033613 C17.4218487,16.2033613 18.4672269,15.1613445 18.4672269,13.8773109 L18.4672269,13.8739496 C18.4672269,13.3260504 18.2689076,12.8285714 17.9495798,12.4285714 L20.8268908,7.61176471 C20.9915966,7.6487395 21.1563025,7.67226891 21.3344538,7.67226891 C22.6184874,7.67226891 23.6571429,6.63361345 23.6605042,5.34957983 C23.6571429,4.06890756 22.6151261,3.02689076 21.3310924,3.02689076" id="Status-grafica-_2Regular"></path>
        </g>
    </g>
</svg>

<svg width="24" height="24" viewBox="0 0 24 24" xmlns="http://www.w3.org/2000/svg"><path d="M21.331 6.17a.822.822 0 11-.003-1.644.822.822 0 01.003 1.644M7.17 10.768a.822.822 0 11.057-1.644.822.822 0 01-.057 1.644M21.33 3.027a2.329 2.329 0 00-2.33 2.323c0 .56.21 1.068.542 1.468l-2.867 4.8a2.245 2.245 0 00-.538-.067c-.676 0-1.28.293-1.708.757L9.48 10.139c.007-.063.02-.124.02-.191a2.326 2.326 0 00-2.326-2.323 2.329 2.329 0 00-2.33 2.323c0 .575.226 1.113.596 1.53l-2.65 4.668a2.306 2.306 0 00-.43-.043A2.329 2.329 0 00.03 18.425a2.332 2.332 0 004.662 0c0-.591-.228-1.122-.595-1.533l2.653-4.675c.14.027.279.054.423.054.676 0 1.28-.293 1.708-.757l4.95 2.168c-.002.064-.02.125-.02.192a2.33 2.33 0 002.327 2.33 2.33 2.33 0 002.33-2.327v-.003c0-.548-.2-1.045-.518-1.445l2.877-4.817c.165.037.33.06.507.06a2.326 2.326 0 002.327-2.322 2.331 2.331 0 00-2.33-2.323" fill="#5CB615" fill-rule="nonzero"/></svg>
